X:711002
T:[ID 7-100]
T:Bezeichnung standardisiert: Anglaise
T:Angeloise
C:Urheber unbekannt
C:Datum in der hier transkribierten schriftlichen Quelle: 1776 - 1791
O:Deutschland; Westfalen; Dinker
S:"Tanzsammlung Dahlhoff" Staatsbibliothek zu Berlin, Musiksammlung, Mus. ms. 40182, Buch 07, 100/2, PDF Nr: 827
S:Scan online: http://resolver.staatsbibliothek-berlin.de/SBB0000969000000827
F:http://simonwascher.info/TradArchiv/Dahlhoff/ file-version 2017-11-21
Z:Erfassung in Capella Richmud Rollenbeck, Konversion nach MusicXML Joergen Lang, Konversion nach abc und abc Lektorat Simon Wascher
L:1/16
M:2/4
K:G
dc |\ %auftakt
B2G2B2d2 | g6a2 | b2ag f2g2 | agfe d2dc | B2G2B2d2 | g6a2 | b2ag f2g2 | a4 ::
a2 |\ %auftakt
afaf afaf | b2g2g2g2 | bgbg bgbg | c'2a2a4 | b2g2f2g2 | agfed2c2 | B2A2G2F2 | G6 ::
g2 |\ %auftakt
[d2B2][d2B2][e2c2][d2B2] | [c4A4][B4G4] | B2A2B2c2 | dcde d2g2 | [d2B2][d2B2][e2c2][d2B2] | [c4A4][B2G2][c2A2] | d2d2e2f2 | g6 H:|

